X: 39615
T: Temperance
R: reel
M: 4/4
K: Gmajor
|:(3DEF|G2GF GABc|d2ge dBAc|BEED EFGA|BcAF GFED|
G2GF GABc|d2ge dBAc|BEED EFGA|BcAF G2:|
|:GA|Beef e2ef|ggga gfed|Bdd^c d2de|fgaf gfed|
Beed e2ef|ggga gfed|BcBG EFGA|BcAF G2:|

